X:1
T:Arthur Henry Brown
T:Holy Church
%%score { ( 1 2 ) | ( 3 4 ) }
L:1/8
Q:1/4=184
M:4/2
K:G
V:1 treble 
V:2 treble 
V:3 bass 
V:4 bass 
V:1
"^Presto" G4 | B4 A4 G4 D4 | E8 D4 d4 | B4 A4 G4 B4 | A12 d4 | B4 A4 G4 D4 | E8 D4 G4 | %7
 G4 A4 B4 A4 | G12 A4 | A6 A2 d4 e4 | d8 ^c4 A4 | d6 F2 E4 D4 | A12 A4 | d6 A2 A4 B4 | c8 B4 G4 | %15
 A6 E2 G4 F4 | G12 | G8 G8 |] %18
V:2
 D4 | G4 F4 E4 D4 | C8 B,4 D4 | D4 D4 D4 ^C4 | D12 F4 | G4 F4 E4 D4 | C8 B,4 D4 | E4 ^C4 D6 =C2 | %8
 B,12 D4 | F6 F2 A4 G4 | F8 E4 ^C4 | D6 D2 E4 B,4 | ^C12 E4 | D6 D2 F4 F4 | G8 G4 D4 | %15
 E6 E2 D4 D4 | D12 | E8 D8 |] %18
V:3
 B,4 | D4 C4 B,4 G,4 | G,8 G,4 A,4 | G,4 A,4 B,4 G,4 | F,12 D4 | D6 C2 B,4 G,4 | G,8 G,4 B,4 | %7
 B,4 G,4 G,4 F,4 | G,12 F,4 | A,6 D2 D4 B,4 | A,8 A,4 A,4 | A,6 A,2 B,4 ^G,4 | A,12 ^C4 | %13
 A,6 A,2 D4 D4 | E8 D4 D4 | C6 A,2 B,4 C4 | B,12 | C8 B,8 |] %18
V:4
 G,4 | G,4 D,4 E,4 B,,4 | C,8 G,4 F,4 | G,4 F,4 E,4 A,,4 | D,12 D,4 | G,4 D,4 E,4 B,,4 | %6
 C,8 G,,4 G,4 | E,4 G,4 D,4 D,4 | G,,12 D,4 | D,6 D,2 F,4 G,4 | A,8 A,4 G,4 | F,6 F,2 ^G,4 E,4 | %12
 A,,12 G,4 | F,6 F,2 D,4 D,4 | C,8 G,,4 B,,4 | C,6 C,2 D,4 D,4 | G,,12 | C,8 G,,8 |] %18

